X:90
T:Kilcar Fiddlers* (h)
B:NFID.083a ("untitled highland")
090kilc_f
S:JD
N:This is an A-B-A tune. My suggested final measures
for the repeat of the A part: |fdec dBcA|d4-d4||
L:1/8
M:C
R:hornpipe
Q:280
K:D
AG|FADA FADF|ABAG FEED|FGAF G2Dg|fdec dABG|
FEDF AdAF|GBAG FEED|FGAF G2Dg|fdec defg||
%B
(3aba fa dafa|(3gag eg =cge^g|a2fa dafa|gbag fdfg|
(3aba fa dafa|(3gag eg =cgeg|fage fde^c|1 dABG FDD^g:|\
[2 dBAG FDDG||
%C
FEDF AdAF|GBAG FEED|FGAF D2Dg|fdec dABG|
FEDF AdAF|GBAG FEED|FGAF D2Dg|fdec dABG ||

%%%

